X:1
T:James Gibb editions
T:And in that time - Tye
T:#
%%score [ 1 2 3 4 ]
L:1/8
Q:1/4=96
M:4/4
K:D
V:1 treble nm="Soprano" snm="S"
V:2 treble nm="Alto" snm="A"
V:3 treble-8 nm="Tenor" snm="T"
V:4 bass nm="Bass" snm="B"
V:1
"^And in that time""^Christopher Tye\n(c.1500-1573)" z2 F2 F2 F2 | F2 B2 B2 ^A2 | B2 =d2 (cB) c2 | %3
w: And in that|time Her- od the|King, he did * his|
[M:4/4] F2 B2 ^A4 | z2 F2 F2 E2 | F2 F2 =A2 G2 | F2 d2 c2 B2 | B2 ^A2 B4 | z2 A2 A2 A2 | %9
w: hands let slip,|to trou- ble|men of good liv-|ing and god- ly|fel- low- ship.|He did slay|
 A2 A2 (AG) (FE) | F2 d2 d2 c2 | d2 d2 c4 | z4 c2 B2 | d2 c3 BBB | ^A2 c2 B2 d2 | %15
w: James, John's bro\- * ther\- *|dear, e'en with the|sword in- deed,|be- cause|the Jews well plea- sed|were he fur- ther|
 (cB) (B3 ^A/^G/ A2) | B8 |] %17
w: did * pro\- * * *|ceed.|
V:2
 z2 D2 B,2 C2 | D2 F2 F3 E | ^D2 B2 B2 ^A2 |[M:4/4] B2 G2 F4 | z2 C2 C2 B,2 | C2 D2 (CD) B,2 | %6
w: And in that|time Her- od the|King, he did his|hands let slip,|to trou- ble|men of good * liv-|
 D2 F2 A2 G2 | F3 E ^D4 | z2 =D2 FF E2- | E(A, D2) D2 C2 | D2 A2 B2 A2 | A2 A2 A4 | z8 | %13
w: ing and god- ly|fel- low- ship.|He did slay James,|* John's * bro- ther-|dear, e'en with the|sword in- deed,||
 z2 A2 G2 B2 | F2 F2 FB =A2- | AGFE F3 E | ^D8 |] %17
w: be- cause the|Jews well plea- sed were|* he fur- ther did pro-|ceed.|
V:3
 z2 B2 d2 c2 | B2 B2 F2 F2 | f2 f2 f3 e |[M:4/4][K:treble-8] d2 e2 c4 | z2 A2 F2 B2 | %5
w: And in that|time Her- od the|King, he did his|hands let slip,|to trou- ble|
 ^A2 =A3 F (GA) | (Bc) d2 e3 d | (cB) c2 B4 | z2 FG (AB) c2 | (F3 F) G2 G2 | A2 f2 e2 e2 | %11
w: men of good liv\- *|ing * and god- ly|fel\- * low- ship.|He did slay * James,|John's * bro- ther-|dear, e'en with the|
 f2 f2 e2 c2 | B2 d2 cded | f2 A2 B2 e2 | c2 A2 defd | (ed) (cB) c2 c2 | B8 |] %17
w: sword in- deed, be-|cause the Jews well plea- sed|were, be- cause the|Jews well plea- sed were he|fur\- * ther * did pro-|ceed.|
V:4
 z2 B,2 B,2 ^A,2 | B,2 D2 (CB,) C2 | B,2 B,2 F,2 F,2 |[M:4/4] B,2 E,2 F,4 | z2 F,2 =A,2 G,2 | %5
w: And in that|time Her- od * the|King, he did his|hands let slip,|to trou- ble|
 F,2 D,2 (F,D,) E,2 | B,,2 B,2 A,2 E,2 | F,2 F,2 B,,4 | z2 =D,2 D,2 C,2 | D,2 F,2 E,2 E,2 | %10
w: men of good * liv-|ing and god- ly|fel- low- ship.|He did slay|James, John's bro- ther-|
 D,2 D,2 G,2 A,2 | (D,E,) (F,G,) A,4 | z2 F,2 E,2 G,2 | F,2 F,2 G,2 E,2 | F,4 z2 F,2 | %15
w: dear, e'en with the|sword * in\- * deed,|be- cause the|Jews well plea- sed|were he|
 E,2 G,2 F,2 F,2 | B,,8 |] %17
w: fur- ther did pro-|ceed.|

